cellphone-sound.svg

<svg fill="currentColor" viewBox="0 0 24 24"><path d="M19.1 8.7c1.8 1.8 1.8 4.6 0 6.5l1 1c2.5-2.3 2.5-6.1 0-8.5zM18 9.8l-1 1c.5.7.5 1.6 0 2.3l1 1c1.2-1.2 1.2-3 0-4.3M14 1H4a2 2 0 0 0-2 2v18a2 2 0 0 0 2 2h10a2 2 0 0 0 2-2V3a2 2 0 0 0-2-2m0 19H4V4h10z"/></svg>

<svg  viewBox="0 0 24 24" fill="currentColor"><path  d="M19.1,8.7C20.9,10.5 20.9,13.3 19.1,15.2L20.1,16.2C22.6,13.9 22.6,10.1 20.1,7.7L19.1,8.7M18,9.8L17,10.8C17.5,11.5 17.5,12.4 17,13.1L18,14.1C19.2,12.9 19.2,11.1 18,9.8M14,1H4A2,2 0 0,0 2,3V21A2,2 0 0,0 4,23H14A2,2 0 0,0 16,21V3A2,2 0 0,0 14,1M14,20H4V4H14V20Z"/></svg>
